X: 41478
T: Tyred Fiddle, The
R: hornpipe
M: 4/4
K: Dmajor
|:(3A^G=G|F>dA>d F>dA>d|G>dB>d G>dB>d|c>de>f (3gfe c>e|d>fe<d (3cdc (3A^G=G|
F>dA>d F2 A>d|G>d (3Bcd G2 B>d|c2 (3def (3gfe c>e|1 (3ded (3ABA D2:|2 d2 A2 D>a||
|:^g=g|f>dc>d A>dc>d|B>GF>G E2 e>d|c>A^G>A B>AF>A|(3dfe (3dcB A>a^g>=g|
f>d (3Bcd A2 c>d|B>GF>G E2 (3fed|c>A^G>A B2 (3[FA][GB][Ac]|1 d2 f2 d>a:|2 d2 A2 D2||

